X:648
T:Reel 648
M:4/4
K:Dmaj
L:1/8
AG|FDDF EB,B,A,| (3FGA Bc dBAG|FDDF EDB,A,|EFED CEAG|FDDF EDB,A,|FDDA F2Bc|dcBA FDEG|FDEC D2| (3ABc |dcdB cdec|dedB c2Ac|dedB cdec|fdBc d2FA|dcdB cdec|dedB c2Ac|dcBA FGAF|BDEC D2|
